components/icon/svg/24/action_swap-vertical.svg

<?xml version="1.0" encoding="UTF-8"?>
<svg width="24px" height="24px" viewBox="0 0 24 24" version="1.1" xmlns="http://www.w3.org/2000/svg" xmlns:xlink="http://www.w3.org/1999/xlink">
    <!-- Generator: Sketch 64 (93537) - https://sketch.com -->
    <title>ic-db_action_swap-vertical_24</title>
    <desc>Created with Sketch.</desc>
    <g id="Symbols:Icon" stroke="none" stroke-width="1" fill="none" fill-rule="evenodd">
        <g id="24dp-Icon/Action/Swap-Vertical" fill="#282D37">
            <path d="M7,22 C7.25,22 7.5,21.90625 7.7188,21.71875 L11.7188,17.71875 C11.9062,17.5 12,17.25 12,17 C12,16.4375 11.5312,16 11,16 C10.75,16 10.5,16.09375 10.3125,16.3125 L8,18.59375 L8,10 C8,9.4375 7.5625,9 7,9 C6.4375,9 6,9.4375 5.9999,9.99998 L6,18.59375 L3.6875,16.3125 C3.5,16.09375 3.25,16 3,16 C2.4375,16 2,16.46875 2,17 C2,17.25 2.0938,17.5 2.2812,17.71875 L6.2812,21.71875 C6.5,21.90625 6.75,22 7,22 Z M17,15 C17.5625,15 18,14.5625 18,14 L18,5.40625 L20.3125,7.71875 C20.5,7.90625 20.75,8 21,8 C21.5938,8 22,7.5625 22,7 C22,6.75 21.9062,6.5 21.7188,6.3125 L17.7188,2.28125 C17.5,2.09375 17.25,2 17,2 C16.75,2 16.5,2.09375 16.3125,2.28125 L12.2812,6.3125 C12.0938,6.5 12,6.75 12,7 C12,7.59375 12.4375,8 13,8 C13.25,8 13.5,7.90625 13.7188,7.71875 L16,5.40625 L16,14 C16,14.5625 16.4375,15 17,15 Z" id="🎨-Color"></path>
        </g>
    </g>
</svg>

<svg width="24" height="24" xmlns="http://www.w3.org/2000/svg"><path d="M7 22c.25 0 .5-.094.719-.281l4-4C11.906 17.5 12 17.25 12 17c0-.563-.469-1-1-1-.25 0-.5.094-.688.313L8 18.593V10c0-.563-.438-1-1-1-.563 0-1 .438-1 1v8.594l-2.313-2.282A.886.886 0 003 16c-.563 0-1 .469-1 1 0 .25.094.5.281.719l4 4C6.5 21.906 6.75 22 7 22zm10-7c.563 0 1-.438 1-1V5.406l2.313 2.313A.97.97 0 0021 8c.594 0 1-.438 1-1a.97.97 0 00-.281-.688l-4-4.03A1.101 1.101 0 0017 2a.97.97 0 00-.688.281l-4.03 4.031A.97.97 0 0012 7c0 .594.438 1 1 1 .25 0 .5-.094.719-.281L16 5.406V14c0 .563.438 1 1 1z" fill="#282D37" fill-rule="evenodd"/></svg>
